client/src/assets/icons/instagram.svg

<svg width="30" height="30" viewBox="0 0 30 30" fill="none" xmlns="http://www.w3.org/2000/svg">
<path d="M17.2787 15.2926C17.2587 15.7301 17.1162 16.1526 16.865 16.5114C16.6131 16.882 16.2504 17.1634 15.8287 17.3151C15.4115 17.4853 14.9522 17.5237 14.5125 17.4251C14.0707 17.331 13.6675 17.1062 13.355 16.7801C13.0454 16.4391 12.842 16.0151 12.77 15.5601C12.6885 15.1195 12.7439 14.6645 12.9287 14.2564C13.1087 13.8476 13.4037 13.4989 13.7812 13.2564C14.165 13.0189 14.6087 12.8926 15.0612 12.8914C15.6575 12.9239 16.2187 13.1814 16.6337 13.6101C16.8482 13.8332 17.0158 14.0971 17.1266 14.3861C17.2373 14.675 17.2891 14.9833 17.2787 15.2926Z" fill="black"/>
<path d="M21.5812 10.0024C21.439 9.65111 21.2276 9.33201 20.9596 9.06403C20.6916 8.79605 20.3725 8.58465 20.0212 8.44238C19.6675 8.30437 19.2921 8.2303 18.9125 8.22363H11.21C10.4481 8.2266 9.71821 8.53058 9.17945 9.06934C8.64069 9.6081 8.3367 10.338 8.33374 11.0999V18.9486C8.33429 19.3273 8.40991 19.7022 8.55624 20.0515C8.70257 20.4008 8.9167 20.7176 9.18624 20.9836C9.72481 21.518 10.4513 21.82 11.21 21.8249H18.9125C19.4798 21.8212 20.0337 21.6512 20.5054 21.336C20.9771 21.0207 21.3459 20.574 21.5662 20.0511C21.7123 19.7019 21.7879 19.3272 21.7887 18.9486V11.1111C21.786 10.7322 21.7157 10.3567 21.5812 10.0024ZM18.535 16.8036C18.3513 17.2599 18.0775 17.6744 17.73 18.0224C17.38 18.3761 16.9662 18.6599 16.5112 18.8636C16.0184 19.0704 15.4883 19.174 14.9539 19.168C14.4194 19.162 13.8918 19.0465 13.4037 18.8286C12.6186 18.4752 11.9746 17.8688 11.5747 17.1063C11.1747 16.3438 11.0419 15.4692 11.1975 14.6224C11.3478 13.8751 11.7071 13.1859 12.2337 12.6349C12.7712 12.0962 13.4549 11.7271 14.2002 11.5733C14.9455 11.4196 15.7195 11.4879 16.4262 11.7699C17.135 12.0574 17.7387 12.5549 18.1562 13.1961C18.5781 13.8144 18.8074 14.5439 18.815 15.2924C18.8325 15.8111 18.7362 16.3261 18.535 16.8036ZM19.875 10.7824C19.8867 10.8798 19.8777 10.9786 19.8485 11.0723C19.8192 11.1659 19.7705 11.2523 19.7054 11.3257C19.6403 11.3992 19.5603 11.4579 19.4709 11.4982C19.3814 11.5385 19.2844 11.5593 19.1862 11.5593C19.0881 11.5593 18.9911 11.5385 18.9016 11.4982C18.8121 11.4579 18.7322 11.3992 18.6671 11.3257C18.602 11.2523 18.5533 11.1659 18.524 11.0723C18.4948 10.9786 18.4857 10.8798 18.4975 10.7824C18.4828 10.6834 18.4897 10.5824 18.5176 10.4864C18.5455 10.3903 18.5938 10.3013 18.6591 10.2256C18.7245 10.1499 18.8054 10.0891 18.8964 10.0474C18.9873 10.0058 19.0862 9.98421 19.1862 9.98421C19.2863 9.98421 19.3852 10.0058 19.4761 10.0474C19.5671 10.0891 19.648 10.1499 19.7134 10.2256C19.7787 10.3013 19.827 10.3903 19.8549 10.4864C19.8828 10.5824 19.8896 10.6834 19.875 10.7824Z" fill="black"/>
<path d="M21.0938 2.8125H8.90625C7.29009 2.8125 5.74012 3.45452 4.59732 4.59732C3.45452 5.74012 2.8125 7.29009 2.8125 8.90625V21.0938C2.8125 21.894 2.97012 22.6864 3.27636 23.4257C3.5826 24.1651 4.03146 24.8368 4.59732 25.4027C5.74012 26.5455 7.29009 27.1875 8.90625 27.1875H21.0938C21.894 27.1875 22.6864 27.0299 23.4257 26.7236C24.1651 26.4174 24.8368 25.9685 25.4027 25.4027C25.9685 24.8368 26.4174 24.1651 26.7236 23.4257C27.0299 22.6864 27.1875 21.894 27.1875 21.0938V8.90625C27.1875 8.10601 27.0299 7.3136 26.7236 6.57427C26.4174 5.83495 25.9685 5.16318 25.4027 4.59732C24.8368 4.03146 24.1651 3.5826 23.4257 3.27636C22.6864 2.97012 21.894 2.8125 21.0938 2.8125ZM23.6775 18.8275C23.69 19.465 23.5688 20.1012 23.3237 20.6912C22.8293 21.8754 21.8879 22.8168 20.7038 23.3113C20.1125 23.5562 19.4788 23.6762 18.8388 23.665H11.3438C10.7046 23.6758 10.0699 23.5558 9.47875 23.3125C8.89278 23.0659 8.35911 22.71 7.90625 22.2638C7.45787 21.8129 7.10203 21.2787 6.85875 20.6912C6.60159 20.1031 6.46881 19.4682 6.46875 18.8263V11.2725C6.45838 10.6332 6.57876 9.99858 6.8225 9.4075C7.30595 8.21841 8.23886 7.26798 9.41875 6.7625C10.0317 6.5242 10.6865 6.41237 11.3438 6.43375H18.9C19.5335 6.42808 20.1617 6.54912 20.7478 6.78976C21.3338 7.0304 21.8658 7.38578 22.3125 7.835C22.7588 8.2875 23.1138 8.8225 23.36 9.4075C23.6038 9.99875 23.725 10.6325 23.7138 11.2725L23.6775 18.8275Z" fill="black"/>
</svg>

<svg xmlns="http://www.w3.org/2000/svg" width="30" height="30" fill="none" viewBox="0 0 30 30">
  <path fill="#fff" d="M17.279 15.293c-.02.437-.163.86-.414 1.218a2.124 2.124 0 0 1-1.036.804c-.418.17-.877.209-1.317.11a2.253 2.253 0 0 1-1.157-.645 2.364 2.364 0 0 1-.585-1.22 2.193 2.193 0 0 1 .159-1.304c.18-.408.475-.757.852-1a2.446 2.446 0 0 1 1.28-.365c.597.033 1.158.29 1.573.72a2.314 2.314 0 0 1 .645 1.682Z"/>
  <path fill="#fff" d="M21.581 10.002a2.827 2.827 0 0 0-1.56-1.56 3.205 3.205 0 0 0-1.108-.218H11.21A2.888 2.888 0 0 0 8.334 11.1v7.849a2.865 2.865 0 0 0 .852 2.035 2.9 2.9 0 0 0 2.024.84h7.703a2.901 2.901 0 0 0 2.653-1.773c.146-.35.222-.724.223-1.102V11.11a3.188 3.188 0 0 0-.208-1.109Zm-3.046 6.802c-.184.456-.457.87-.805 1.218a4.03 4.03 0 0 1-1.219.842 3.911 3.911 0 0 1-3.107-.035 3.85 3.85 0 0 1-2.207-4.207 4.02 4.02 0 0 1 1.037-1.987 3.888 3.888 0 0 1 4.192-.865 3.743 3.743 0 0 1 1.73 1.426 3.79 3.79 0 0 1 .659 2.096 3.58 3.58 0 0 1-.28 1.512Zm1.34-6.022a.696.696 0 0 1-.973.716.693.693 0 0 1-.405-.716.695.695 0 1 1 1.378 0Z"/>
  <path fill="#fff" d="M21.094 2.813H8.906a6.094 6.094 0 0 0-6.094 6.093v12.188a6.093 6.093 0 0 0 6.094 6.093h12.188a6.092 6.092 0 0 0 6.093-6.093V8.906a6.093 6.093 0 0 0-6.093-6.094Zm2.583 16.015a4.628 4.628 0 0 1-.353 1.863 4.875 4.875 0 0 1-2.62 2.62 4.656 4.656 0 0 1-1.865.354h-7.495c-.64.01-1.274-.11-1.865-.352a5.009 5.009 0 0 1-1.573-1.05 4.876 4.876 0 0 1-1.047-1.572 4.656 4.656 0 0 1-.39-1.865v-7.553c-.01-.64.11-1.274.353-1.865A4.875 4.875 0 0 1 9.42 6.763a4.875 4.875 0 0 1 1.925-.33H18.9a4.753 4.753 0 0 1 3.413 1.402c.446.452.8.987 1.047 1.573.244.59.365 1.225.354 1.865l-.037 7.555Z"/>
</svg>
